projects/js-packages/components/components/upsell-banner/stories/jetpack-manage.svg

<svg fill="none" height="105" viewBox="0 0 105 105" width="105" xmlns="http://www.w3.org/2000/svg"><rect fill="#2c3338" height="104" rx="12.1905" width="103.91" x=".190476" y=".19043"/><g fill="#fff"><path clip-rule="evenodd" d="m32.1456 33.3356c0-.6649.5401-1.205 1.205-1.205h27.59c.6649 0 1.205.5401 1.205 1.205v2.795h2v-2.795c0-1.7695-1.4355-3.205-3.205-3.205h-27.59c-1.7694 0-3.205 1.4355-3.205 3.205v27.59c0 1.7695 1.4356 3.205 3.205 3.205h2.795v-2h-2.795c-.6649 0-1.205-.5401-1.205-1.205z" fill-rule="evenodd"/><path clip-rule="evenodd" d="m37.1456 38.3356c0-.6655.5395-1.205 1.205-1.205h27.59c.6655 0 1.205.5395 1.205 1.205v2.795h2v-2.795c0-1.7701-1.4349-3.205-3.205-3.205h-27.59c-1.77 0-3.205 1.4349-3.205 3.205v27.59c0 1.7701 1.435 3.205 3.205 3.205h2.795v-2h-2.795c-.6655 0-1.205-.5395-1.205-1.205z" fill-rule="evenodd"/><path clip-rule="evenodd" d="m43.3506 42.1306c-.6655 0-1.205.5395-1.205 1.205v27.59c0 .6655.5395 1.205 1.205 1.205h27.59c.6655 0 1.205-.5395 1.205-1.205v-27.59c0-.6655-.5395-1.205-1.205-1.205zm-3.205 1.205c0-1.7701 1.4349-3.205 3.205-3.205h27.59c1.7701 0 3.205 1.4349 3.205 3.205v27.59c0 1.7701-1.4349 3.205-3.205 3.205h-27.59c-1.7701 0-3.205-1.4349-3.205-3.205z" fill-rule="evenodd"/><path clip-rule="evenodd" d="m66.7775 63.5483h-19.6319v-1.841h19.6319z" fill-rule="evenodd"/><path clip-rule="evenodd" d="m47.1456 51.2786h19.6319v1.8409h-19.6319z" fill-rule="evenodd"/><path d="m60.029 65.6962c1.6946 0 3.0683-1.3738 3.0683-3.0683 0-1.6946-1.3737-3.0683-3.0683-3.0683s-3.0683 1.3737-3.0683 3.0683c0 1.6945 1.3737 3.0683 3.0683 3.0683z"/><path d="m53.8941 55.2672c1.6946 0 3.0683-1.3737 3.0683-3.0683s-1.3737-3.0683-3.0683-3.0683c-1.6945 0-3.0683 1.3737-3.0683 3.0683s1.3738 3.0683 3.0683 3.0683z"/></g></svg>

<svg width="105" height="105" viewBox="0 0 105 105" fill="none" xmlns="http://www.w3.org/2000/svg">
    <rect x="0.190476" y="0.19043" width="103.91" height="104" rx="12.1905" fill="#2C3338"/>
    <path fill-rule="evenodd" clip-rule="evenodd" d="M32.1456 33.3356C32.1456 32.6707 32.6857 32.1306 33.3506 32.1306H60.9406C61.6055 32.1306 62.1456 32.6707 62.1456 33.3356V36.1306H64.1456V33.3356C64.1456 31.5661 62.7101 30.1306 60.9406 30.1306H33.3506C31.5812 30.1306 30.1456 31.5661 30.1456 33.3356V60.9256C30.1456 62.6951 31.5812 64.1306 33.3506 64.1306H36.1456V62.1306H33.3506C32.6857 62.1306 32.1456 61.5905 32.1456 60.9256V33.3356Z" fill="white"/>
    <path fill-rule="evenodd" clip-rule="evenodd" d="M37.1456 38.3356C37.1456 37.6701 37.6851 37.1306 38.3506 37.1306H65.9406C66.6061 37.1306 67.1456 37.6701 67.1456 38.3356V41.1306H69.1456V38.3356C69.1456 36.5655 67.7107 35.1306 65.9406 35.1306H38.3506C36.5806 35.1306 35.1456 36.5655 35.1456 38.3356V65.9256C35.1456 67.6957 36.5806 69.1306 38.3506 69.1306H41.1456V67.1306H38.3506C37.6851 67.1306 37.1456 66.5911 37.1456 65.9256V38.3356Z" fill="white"/>
    <path fill-rule="evenodd" clip-rule="evenodd" d="M43.3506 42.1306C42.6851 42.1306 42.1456 42.6701 42.1456 43.3356V70.9256C42.1456 71.5911 42.6851 72.1306 43.3506 72.1306H70.9406C71.6061 72.1306 72.1456 71.5911 72.1456 70.9256V43.3356C72.1456 42.6701 71.6061 42.1306 70.9406 42.1306H43.3506ZM40.1456 43.3356C40.1456 41.5655 41.5805 40.1306 43.3506 40.1306H70.9406C72.7107 40.1306 74.1456 41.5655 74.1456 43.3356V70.9256C74.1456 72.6957 72.7107 74.1306 70.9406 74.1306H43.3506C41.5805 74.1306 40.1456 72.6957 40.1456 70.9256V43.3356Z" fill="white"/>
    <path fill-rule="evenodd" clip-rule="evenodd" d="M66.7775 63.5483H47.1456V61.7073H66.7775V63.5483Z" fill="white"/>
    <path fill-rule="evenodd" clip-rule="evenodd" d="M47.1456 51.2786H66.7775V53.1195H47.1456V51.2786Z" fill="white"/>
    <path d="M60.029 65.6962C61.7236 65.6962 63.0973 64.3224 63.0973 62.6279C63.0973 60.9333 61.7236 59.5596 60.029 59.5596C58.3344 59.5596 56.9607 60.9333 56.9607 62.6279C56.9607 64.3224 58.3344 65.6962 60.029 65.6962Z" fill="white"/>
    <path d="M53.8941 55.2672C55.5887 55.2672 56.9624 53.8935 56.9624 52.1989C56.9624 50.5043 55.5887 49.1306 53.8941 49.1306C52.1996 49.1306 50.8258 50.5043 50.8258 52.1989C50.8258 53.8935 52.1996 55.2672 53.8941 55.2672Z" fill="white"/>
</svg>
